X: 3
T: Sixpenny Money
R: jig
M: 6/8
L: 1/8
K: Dmaj
|: .F.A.A .F.A.A | BAG FEF| D3 AFA| dfd ~e2d:|
|: AAA AFA|BAG FEF|D3 AFA|dfd fed :|
|: fdf gfg| afd ecA|fdf gfg| afd ~e2d|
|fdf gbg|afd ecA|AFA DFA|dfd ~e2d:|
|: AAA AFA|BAG FEF|D3 AFA|dfd fed :|
|: fdf gfg| afd ecA|fdf gfg| afd ~e2d|
|fdf gbg|afd ecA|AFA DFA|dfd ~e2c|
|d6|


Tune 387	Setting 26001

